;FLAVOR:Marlin
;TIME:2215
;Filament used: 1.84352m
;Layer height: 0.2
;MINX:66.285
;MINY:82.525
;MINZ:0.2
;MAXX:143.715
;MAXY:127.475
;MAXZ:11
;Generated with Cura_SteamEngine 4.5.0
M140 S60
M105
M190 S60
M104 S200
M105
M109 S200
M82 ;absolute extrusion mode
G21 ;metric values
G90 ;absolute positioning
M82 ;set extruder to absolute mode
M107 ;start with the fan off
G28 X0 Y0 ;move X/Y to min endstops
G28 Z0 ;move Z to min endstops
G1 Z15.0 F100 ;move the platform down 15mm
G92 E0 ;zero the extruded length
G1 F200 E3 ;extrude 3mm of feed stock
G92 E0 ;zero the extruded length again
G1 F100
G0 Y20 F100
M117 Printing...
G5
G92 E0
G92 E0
G1 F2400 E-6
;LAYER_COUNT:55
;LAYER:0
M106 S255
M204 S3000
M205 X10 Y10
G1 F600 Z0.275
G0 F3000 X69.123 Y84.674 Z0.275
M204 S1800
M205 X8 Y8
;TYPE:SKIRT
G1 F600 Z0.2
G1 F2400 E0
G1 X69.73 Y84.253 E0.0344
G1 X70.345 Y83.889 E0.06767
G1 X70.998 Y83.595 E0.10102
G1 X71.966 Y83.308 E0.14803
G1 X73.059 Y83.116 E0.19971
G1 X73.573 Y83.087 E0.22368
G1 X74.219 Y83.076 E0.25376
G1 X97.341 Y83.075 E1.33042
G1 X100.003 Y83.037 E1.45439
G1 X102.642 Y82.925 E1.57738
G1 X105.305 Y82.736 E1.70169
G1 X106.295 Y82.639 E1.74801
G1 X106.959 Y82.582 E1.77905
G1 X108.601 Y82.535 E1.85554
G1 X135.357 Y82.525 E3.10141
G1 X136.032 Y82.534 E3.13284
G1 X136.635 Y82.557 E3.16094
G1 X137.742 Y82.678 E3.21279
G1 X138.436 Y82.85 E3.24609
G1 X139.293 Y83.182 E3.28888
G1 X140.246 Y83.678 E3.33891
G1 X140.832 Y84.088 E3.37221
G1 X141.521 Y84.716 E3.41562
G1 X142.277 Y85.571 E3.46876
G1 X142.675 Y86.165 E3.50206
G1 X143.005 Y86.8 E3.53538
G1 X143.223 Y87.351 E3.56297
G1 X143.531 Y88.371 E3.61259
G1 X143.647 Y89.077 E3.6459
G1 X143.683 Y89.626 E3.67152
G1 X143.705 Y90.667 E3.72
G1 X143.715 Y118.535 E5.01765
G1 X143.705 Y119.291 E5.05286
G1 X143.68 Y119.914 E5.08189
G1 X143.57 Y120.911 E5.1286
G1 X143.402 Y121.606 E5.16189
G1 X143.057 Y122.5 E5.20651
G1 X142.538 Y123.501 E5.25902
G1 X142.128 Y124.087 E5.29232
G1 X141.655 Y124.623 E5.32561
G1 X141.015 Y125.205 E5.36589
G1 X140.451 Y125.644 E5.39917
G1 X139.841 Y126.018 E5.43248
G1 X139.109 Y126.354 E5.46999
G1 X138.429 Y126.59 E5.50351
G1 X137.736 Y126.77 E5.53685
G1 X137.028 Y126.87 E5.57014
G1 X135.529 Y126.915 E5.63997
G1 X112.598 Y126.924 E6.70773
G1 X109.935 Y126.963 E6.83175
G1 X107.292 Y127.076 E6.95493
G1 X103.599 Y127.358 E7.12739
G1 X102.81 Y127.434 E7.1643
G1 X102.303 Y127.463 E7.18795
G1 X101.65 Y127.474 E7.21836
G1 X74.392 Y127.475 E8.48761
G1 X73.602 Y127.464 E8.52439
G1 X72.889 Y127.414 E8.55768
G1 X72.114 Y127.278 E8.59431
G1 X71.42 Y127.104 E8.62763
G1 X70.75 Y126.853 E8.66095
G1 X69.868 Y126.379 E8.70757
G1 X68.947 Y125.741 E8.75974
G1 X68.418 Y125.259 E8.79307
G1 X67.947 Y124.721 E8.82636
G1 X67.652 Y124.314 E8.84977
G1 X67.078 Y123.375 E8.90101
G1 X66.787 Y122.722 E8.9343
G1 X66.499 Y121.722 E8.98276
G1 X66.321 Y120.638 E9.03391
G1 X66.286 Y119.541 E9.08502
G1 X66.285 Y91.152 E10.40693
G1 X66.296 Y90.388 E10.44251
G1 X66.346 Y89.675 E10.47579
G1 X66.492 Y88.86 E10.51434
G1 X66.67 Y88.167 E10.54766
G1 X66.923 Y87.498 E10.58096
G1 X67.25 Y86.862 E10.61426
G1 X67.658 Y86.23 E10.64929
G1 X68.087 Y85.657 E10.68262
G1 X68.577 Y85.136 E10.71593
G1 X69.123 Y84.674 E10.74923
M204 S3000
M205 X10 Y10
G0 F3000 X69.732 Y84.926
M204 S1800
M205 X8 Y8
G1 F2400 X70.631 Y84.372 E10.7984
G1 X71.256 Y84.096 E10.83022
G1 X72.082 Y83.855 E10.87028
G1 X73.144 Y83.671 E10.92047
G1 X74.229 Y83.636 E10.97102
G1 X97.349 Y83.635 E12.04758
G1 X100 Y83.598 E12.17104
G1 X102.706 Y83.483 E12.29715
G1 X105.326 Y83.297 E12.41946
G1 X106.35 Y83.196 E12.46737
G1 X107.007 Y83.14 E12.49807
G1 X108.612 Y83.095 E12.57284
G1 X135.357 Y83.085 E13.8182
G1 X136.025 Y83.094 E13.84931
G1 X136.61 Y83.117 E13.87657
G1 X137.668 Y83.234 E13.92613
G1 X138.33 Y83.403 E13.95795
G1 X139.053 Y83.689 E13.99415
G1 X139.977 Y84.171 E14.04268
G1 X140.534 Y84.567 E14.0745
G1 X141.115 Y85.102 E14.11128
G1 X141.848 Y85.933 E14.16287
G1 X142.224 Y86.503 E14.19467
G1 X142.531 Y87.114 E14.22651
G1 X142.807 Y87.864 E14.26372
G1 X142.991 Y88.522 E14.29554
G1 X143.097 Y89.197 E14.32735
G1 X143.145 Y90.679 E14.3964
G1 X143.155 Y118.535 E15.69349
G1 X143.145 Y119.284 E15.72837
G1 X143.121 Y119.875 E15.75591
G1 X143.014 Y120.84 E15.80112
G1 X142.848 Y121.502 E15.8329
G1 X142.551 Y122.26 E15.87081
G1 X142.046 Y123.232 E15.92181
G1 X141.649 Y123.788 E15.95363
G1 X141.191 Y124.295 E15.98544
G1 X140.647 Y124.783 E16.01947
G1 X140.107 Y125.201 E16.05127
G1 X139.522 Y125.553 E16.08306
G1 X138.908 Y125.831 E16.11444
G1 X138.258 Y126.057 E16.14649
G1 X137.596 Y126.226 E16.1783
G1 X136.599 Y126.333 E16.22499
G1 X135.518 Y126.355 E16.27534
G1 X112.589 Y126.364 E17.34301
G1 X109.938 Y126.402 E17.46646
G1 X107.257 Y126.517 E17.59142
G1 X103.549 Y126.8 E17.76458
G1 X102.756 Y126.877 E17.80168
G1 X101.64 Y126.914 E17.85367
G1 X74.392 Y126.915 E19.12245
G1 X73.61 Y126.904 E19.15887
G1 X72.929 Y126.855 E19.19066
G1 X72.22 Y126.728 E19.2242
G1 X71.558 Y126.56 E19.256
G1 X70.92 Y126.315 E19.28783
G1 X70.17 Y125.908 E19.32756
G1 X69.277 Y125.287 E19.37821
G1 X68.775 Y124.823 E19.41004
G1 X68.331 Y124.303 E19.44188
G1 X67.906 Y123.683 E19.47688
G1 X67.562 Y123.093 E19.50868
G1 X67.29 Y122.466 E19.54051
G1 X67.048 Y121.611 E19.58188
G1 X66.876 Y120.559 E19.63152
G1 X66.846 Y119.531 E19.67941
G1 X66.845 Y91.152 E21.00085
G1 X66.856 Y90.397 E21.03601
G1 X66.906 Y89.715 E21.06785
G1 X67.042 Y88.968 E21.10321
G1 X67.213 Y88.307 E21.135
G1 X67.46 Y87.67 E21.16682
G1 X67.91 Y86.863 E21.20984
G1 X68.536 Y85.994 E21.25971
G1 X69.008 Y85.501 E21.29149
G1 X69.732 Y84.926 E21.33454
M204 S3000
M205 X10 Y10
G0 F3000 X70.044 Y85.391
M204 S1800
M205 X8 Y8
G1 F2400 X70.915 Y84.855 E21.38216
G1 X71.512 Y84.599 E21.41241
G1 X72.199 Y84.403 E21.44568
G1 X73.227 Y84.226 E21.49425
G1 X74.238 Y84.196 E21.54135
G1 X97.357 Y84.195 E22.61786
G1 X100.032 Y84.157 E22.74244
G1 X102.7 Y84.044 E22.86678
G1 X105.383 Y83.854 E22.99202
G1 X106.405 Y83.753 E23.03984
G1 X107.054 Y83.698 E23.07017
G1 X108.624 Y83.655 E23.14331
G1 X135.357 Y83.645 E24.38811
G1 X136.017 Y83.653 E24.41884
G1 X136.586 Y83.676 E24.44536
G1 X137.592 Y83.79 E24.4925
G1 X138.22 Y83.956 E24.52275
G1 X138.813 Y84.195 E24.55252
G1 X139.707 Y84.662 E24.59949
G1 X140.233 Y85.044 E24.62976
G1 X140.708 Y85.487 E24.66
G1 X141.419 Y86.294 E24.71008
G1 X141.771 Y86.839 E24.74029
G1 X142.164 Y87.714 E24.78496
G1 X142.451 Y88.672 E24.83152
G1 X142.545 Y89.315 E24.86178
G1 X142.585 Y90.69 E24.92584
G1 X142.595 Y118.535 E26.22242
G1 X142.586 Y119.276 E26.25692
G1 X142.562 Y119.836 E26.28302
G1 X142.457 Y120.767 E26.32665
G1 X142.294 Y121.396 E26.3569
G1 X142.045 Y122.02 E26.38819
G1 X141.554 Y122.961 E26.43761
G1 X141.173 Y123.487 E26.46785
G1 X140.569 Y124.108 E26.50819
G1 X139.764 Y124.757 E26.55634
G1 X139.205 Y125.087 E26.58657
G1 X138.706 Y125.309 E26.612
G1 X138.088 Y125.523 E26.64245
G1 X137.458 Y125.683 E26.67272
G1 X136.587 Y125.773 E26.71349
G1 X135.506 Y125.795 E26.76384
G1 X112.581 Y125.804 E27.83132
G1 X109.906 Y125.843 E27.95589
G1 X107.25 Y125.957 E28.07968
G1 X103.503 Y126.243 E28.25467
G1 X102.702 Y126.32 E28.29214
G1 X101.631 Y126.354 E28.34203
G1 X74.392 Y126.355 E29.61039
G1 X73.618 Y126.344 E29.64644
G1 X72.694 Y126.249 E29.68969
G1 X71.697 Y126.016 E29.73737
G1 X71.092 Y125.778 E29.76764
G1 X70.473 Y125.437 E29.80055
G1 X69.608 Y124.834 E29.84965
G1 X69.135 Y124.388 E29.87992
G1 X68.585 Y123.694 E29.92115
G1 X68.047 Y122.811 E29.9693
G1 X67.794 Y122.213 E29.99953
G1 X67.597 Y121.5 E30.03398
G1 X67.417 Y120.168 E30.09656
G1 X67.406 Y119.522 E30.12665
G1 X67.405 Y91.152 E31.44767
G1 X67.416 Y90.405 E31.48246
G1 X67.515 Y89.461 E31.52666
G1 X67.756 Y88.448 E31.57515
G1 X67.996 Y87.845 E31.60537
G1 X68.376 Y87.173 E31.64131
G1 X68.983 Y86.333 E31.68957
G1 X69.436 Y85.867 E31.71983
G1 X70.044 Y85.391 E31.75579
M204 S3000
M205 X10 Y10
G1 F2400 E25.75579
;MESH:SSD1306_I2C_OLED_128x64_Cover.stl
G0 F3000 X73.48 Y88.839
G0 X73.775 Y90.335
G0 X93.835 Y114.075
M204 S1800
M205 X8 Y8
;TYPE:WALL-INNER
G1 F2400 E31.75579
G1 F1500 X80.035 Y114.075 E32.39837
G1 X80.035 Y119.675 E32.65913
G1 X74.085 Y119.675 E32.93619
G1 X74.085 Y90.875 E34.27724
G1 X101.784 Y90.875 E35.56702
G1 X101.785 Y119.395 E36.89503
G1 X101.785 Y119.675 E36.90807
G1 X101.505 Y119.675 E36.91651
G1 X93.835 Y119.675 E37.27366
G1 X93.835 Y114.075 E37.53442
M204 S3000
M205 X10 Y10
G0 F3000 X80.567 Y114.607
G0 X80.525 Y119.485
G0 X80.595 Y119.415
M204 S1800
M205 X8 Y8
G1 F1500 X93.275 Y119.415 E38.12485
G1 X93.275 Y114.635 E38.34743
G1 X80.595 Y114.635 E38.93786
G1 X80.595 Y119.415 E39.16044
M204 S3000
M205 X10 Y10
G0 F3000 X80.525 Y119.485
G0 X80.567 Y114.607
G0 X102.216 Y90.443
G0 X102.286 Y90.373
M204 S1800
M205 X8 Y8
G1 F1500 X102.317 Y90.42 E39.16306
G1 X102.344 Y90.557 E39.16956
G1 X102.345 Y119.884 E40.53515
G1 X102.345 Y119.991 E40.54013
G1 X102.317 Y120.131 E40.54678
G1 X102.287 Y120.176 E40.5493
G1 X102.24 Y120.207 E40.55192
G1 X102.099 Y120.235 E40.55861
G1 X101.992 Y120.235 E40.5636
G1 X73.769 Y120.235 E41.87778
G1 X73.629 Y120.207 E41.88442
G1 X73.584 Y120.177 E41.88694
G1 X73.553 Y120.13 E41.88956
G1 X73.525 Y119.989 E41.89626
G1 X73.525 Y90.559 E43.26664
G1 X73.553 Y90.419 E43.27329
G1 X73.583 Y90.374 E43.27581
G1 X73.63 Y90.343 E43.27843
G1 X73.771 Y90.315 E43.28512
G1 X102.101 Y90.315 E44.60429
G1 X102.241 Y90.343 E44.61094
G1 X102.286 Y90.373 E44.61345
M204 S3000
M205 X10 Y10
G0 F3000 X102.691 Y89.971
M204 S1800
M205 X8 Y8
;TYPE:WALL-OUTER
G1 F1500 X102.846 Y90.203 E44.62645
G1 X102.904 Y90.501 E44.64058
G1 X102.905 Y120.045 E46.01627
G1 X102.844 Y120.352 E46.03085
G1 X102.689 Y120.581 E46.04373
G1 X102.457 Y120.736 E46.05672
G1 X102.156 Y120.795 E46.071
G1 X73.715 Y120.795 E47.39533
G1 X73.408 Y120.734 E47.40991
G1 X73.179 Y120.579 E47.42278
G1 X73.024 Y120.347 E47.43578
G1 X72.965 Y120.046 E47.45006
G1 X72.965 Y90.505 E48.82561
G1 X73.026 Y90.198 E48.84019
G1 X73.181 Y89.969 E48.85306
G1 X73.413 Y89.814 E48.86605
G1 X73.714 Y89.755 E48.88034
G1 X102.155 Y89.755 E50.20467
G1 X102.462 Y89.816 E50.21924
G1 X102.691 Y89.971 E50.23212
M204 S3000
M205 X10 Y10
G0 F3000 X102.802 Y90.137
G0 X102.225 Y90.457
G0 X80.567 Y114.607
G0 X80.495 Y118.855
G0 X81.155 Y118.855
M204 S1800
M205 X8 Y8
G1 F1500 X92.715 Y118.855 E50.7704
G1 X92.715 Y115.195 E50.94083
G1 X81.155 Y115.195 E51.47911
G1 X81.155 Y118.855 E51.64953
M204 S3000
M205 X10 Y10
G0 F3000 X81.355 Y118.855
G0 X81.355 Y119.515
G0 X79.485 Y119.125
M204 S1800
M205 X8 Y8
;TYPE:SKIN
G1 F1500 X74.635 Y119.125 E51.87537
G1 X74.635 Y91.425 E53.1652
G1 X101.234 Y91.425 E54.40376
G1 X101.235 Y119.125 E55.69359
G1 X94.385 Y119.125 E56.01255
G1 X94.385 Y113.525 E56.27331
G1 X79.485 Y113.525 E56.96712
G1 X79.485 Y119.125 E57.22788
M204 S3000
M205 X10 Y10
G0 F3000 X75.306 Y118.863
M204 S1800
M205 X8 Y8
G1 F1500 X74.894 Y118.452 E57.25497
M204 S3000
M205 X10 Y10
G0 F3000 X74.894 Y117.66
M204 S1800
M205 X8 Y8
G1 F1500 X76.098 Y118.863 E57.33423
M204 S3000
M205 X10 Y10
G0 F3000 X76.89 Y118.863
M204 S1800
M205 X8 Y8
G1 F1500 X74.894 Y116.868 E57.46563
M204 S3000
M205 X10 Y10
G0 F3000 X74.894 Y116.076
M204 S1800
M205 X8 Y8
G1 F1500 X77.682 Y118.863 E57.6492
M204 S3000
M205 X10 Y10
G0 F3000 X78.474 Y118.863
M204 S1800
M205 X8 Y8
G1 F1500 X74.894 Y115.284 E57.88491
M204 S3000
M205 X10 Y10
G0 F3000 X74.894 Y114.492
M204 S1800
M205 X8 Y8
G1 F1500 X79.224 Y118.822 E58.17005
M204 S3000
M205 X10 Y10
G0 F3000 X79.224 Y118.03
M204 S1800
M205 X8 Y8
G1 F1500 X74.894 Y113.7 E58.45519
M204 S3000
M205 X10 Y10
G0 F3000 X74.894 Y112.908
M204 S1800
M205 X8 Y8
G1 F1500 X79.224 Y117.239 E58.74036
M204 S3000
M205 X10 Y10
G0 F3000 X79.224 Y116.447
M204 S1800
M205 X8 Y8
G1 F1500 X74.894 Y112.116 E59.02553
M204 S3000
M205 X10 Y10
G0 F3000 X74.894 Y111.324
M204 S1800
M205 X8 Y8
G1 F1500 X79.224 Y115.655 E59.3107
M204 S3000
M205 X10 Y10
G0 F3000 X79.224 Y114.863
M204 S1800
M205 X8 Y8
G1 F1500 X74.894 Y110.532 E59.59587
M204 S3000
M205 X10 Y10
G0 F3000 X74.894 Y109.74
M204 S1800
M205 X8 Y8
G1 F1500 X79.224 Y114.071 E59.88104
M204 S3000
M205 X10 Y10
G0 F3000 X79.224 Y113.279
M204 S1800
M205 X8 Y8
G1 F1500 X74.894 Y108.948 E60.16621
M204 S3000
M205 X10 Y10
G0 F3000 X74.894 Y108.156
M204 S1800
M205 X8 Y8
G1 F1500 X80.001 Y113.263 E60.50252
M204 S3000
M205 X10 Y10
G0 F3000 X80.793 Y113.263
M204 S1800
M205 X8 Y8
G1 F1500 X74.894 Y107.364 E60.89098
M204 S3000
M205 X10 Y10
G0 F3000 X74.894 Y106.573
M204 S1800
M205 X8 Y8
G1 F1500 X81.585 Y113.263 E61.33156
M204 S3000
M205 X10 Y10
G0 F3000 X82.377 Y113.263
M204 S1800
M205 X8 Y8
G1 F1500 X74.894 Y105.781 E61.82429
M204 S3000
M205 X10 Y10
G0 F3000 X74.894 Y104.989
M204 S1800
M205 X8 Y8
G1 F1500 X83.169 Y113.263 E62.36918
M204 S3000
M205 X10 Y10
G0 F3000 X83.961 Y113.263
M204 S1800
M205 X8 Y8
G1 F1500 X74.894 Y104.197 E62.96623
M204 S3000
M205 X10 Y10
G0 F3000 X74.894 Y103.405
M204 S1800
M205 X8 Y8
G1 F1500 X84.753 Y113.263 E63.61543
M204 S3000
M205 X10 Y10
G0 F3000 X85.545 Y113.263
M204 S1800
M205 X8 Y8
G1 F1500 X74.894 Y102.613 E64.31678
M204 S3000
M205 X10 Y10
G0 F3000 X74.894 Y101.821
M204 S1800
M205 X8 Y8
G1 F1500 X86.337 Y113.263 E65.07029
M204 S3000
M205 X10 Y10
G0 F3000 X87.128 Y113.263
M204 S1800
M205 X8 Y8
G1 F1500 X74.894 Y101.029 E65.87592
M204 S3000
M205 X10 Y10
G0 F3000 X74.894 Y100.237
M204 S1800
M205 X8 Y8
G1 F1500 X87.92 Y113.263 E66.7337
M204 S3000
M205 X10 Y10
G0 F3000 X88.712 Y113.263
M204 S1800
M205 X8 Y8
G1 F1500 X74.894 Y99.445 E67.64364
M204 S3000
M205 X10 Y10
G0 F3000 X74.894 Y98.653
M204 S1800
M205 X8 Y8
G1 F1500 X89.504 Y113.263 E68.60573
M204 S3000
M205 X10 Y10
G0 F3000 X90.296 Y113.263
M204 S1800
M205 X8 Y8
G1 F1500 X74.894 Y97.861 E69.61998
M204 S3000
M205 X10 Y10
G0 F3000 X74.894 Y97.069
M204 S1800
M205 X8 Y8
G1 F1500 X91.088 Y113.263 E70.68638
M204 S3000
M205 X10 Y10
G0 F3000 X91.88 Y113.263
M204 S1800
M205 X8 Y8
G1 F1500 X74.894 Y96.277 E71.80494
M204 S3000
M205 X10 Y10
G0 F3000 X74.894 Y95.485
M204 S1800
M205 X8 Y8
G1 F1500 X92.672 Y113.263 E72.97565
M204 S3000
M205 X10 Y10
G0 F3000 X93.464 Y113.263
M204 S1800
M205 X8 Y8
G1 F1500 X74.894 Y94.693 E74.19852
M204 S3000
M205 X10 Y10
G0 F3000 X74.894 Y93.901
M204 S1800
M205 X8 Y8
G1 F1500 X94.256 Y113.263 E75.47354
M204 S3000
M205 X10 Y10
G0 F3000 X94.644 Y113.651
M204 S1800
M205 X8 Y8
G1 F1500 X99.857 Y118.864 E75.81683
M204 S3000
M205 X10 Y10
G0 F3000 X99.065 Y118.864
M204 S1800
M205 X8 Y8
G1 F1500 X94.644 Y114.443 E76.10796
M204 S3000
M205 X10 Y10
G0 F3000 X94.644 Y115.235
M204 S1800
M205 X8 Y8
G1 F1500 X98.273 Y118.864 E76.34693
M204 S3000
M205 X10 Y10
G0 F3000 X97.481 Y118.864
M204 S1800
M205 X8 Y8
G1 F1500 X94.644 Y116.027 E76.53375
M204 S3000
M205 X10 Y10
G0 F3000 X94.644 Y116.819
M204 S1800
M205 X8 Y8
G1 F1500 X96.689 Y118.864 E76.66842
M204 S3000
M205 X10 Y10
G0 F3000 X95.897 Y118.864
M204 S1800
M205 X8 Y8
G1 F1500 X94.644 Y117.611 E76.75093
M204 S3000
M205 X10 Y10
G0 F3000 X94.644 Y118.403
M204 S1800
M205 X8 Y8
G1 F1500 X95.105 Y118.864 E76.78129
M204 S3000
M205 X10 Y10
G0 F3000 X100.649 Y118.864
M204 S1800
M205 X8 Y8
G1 F1500 X74.894 Y93.109 E78.4773
M204 S3000
M205 X10 Y10
G0 F3000 X74.894 Y92.317
M204 S1800
M205 X8 Y8
G1 F1500 X100.974 Y118.397 E80.19471
M204 S3000
M205 X10 Y10
G0 F3000 X100.974 Y117.605
M204 S1800
M205 X8 Y8
G1 F1500 X75.053 Y91.684 E81.90166
M204 S3000
M205 X10 Y10
G0 F3000 X75.845 Y91.684
M204 S1800
M205 X8 Y8
G1 F1500 X100.974 Y116.814 E83.55648
M204 S3000
M205 X10 Y10
G0 F3000 X100.974 Y116.022
M204 S1800
M205 X8 Y8
G1 F1500 X76.637 Y91.684 E85.15914
M204 S3000
M205 X10 Y10
G0 F3000 X77.429 Y91.684
M204 S1800
M205 X8 Y8
G1 F1500 X100.974 Y115.23 E86.70965
M204 S3000
M205 X10 Y10
G0 F3000 X100.974 Y114.438
M204 S1800
M205 X8 Y8
G1 F1500 X78.221 Y91.684 E88.20801
M204 S3000
M205 X10 Y10
G0 F3000 X79.013 Y91.684
M204 S1800
M205 X8 Y8
G1 F1500 X100.974 Y113.646 E89.65421
M204 S3000
M205 X10 Y10
G0 F3000 X100.974 Y112.854
M204 S1800
M205 X8 Y8
G1 F1500 X79.805 Y91.684 E91.04826
M204 S3000
M205 X10 Y10
G0 F3000 X80.597 Y91.684
M204 S1800
M205 X8 Y8
G1 F1500 X100.974 Y112.062 E92.39015
M204 S3000
M205 X10 Y10
G0 F3000 X100.974 Y111.27
M204 S1800
M205 X8 Y8
